X:1

T:The Battle of the Somme

C:Willie Laurie

S:Forgotten

R:march

M:9/8                                                                                                                 

L:1/8

Z:Nigel Gatherer

K:D

A|f<af d3 d>cd|e>dG B3 A3| B<GB A3 d3|f<af e3 e2 A|f<af d3 d>cd|

e>dG B3 A3|B<GB A3 f3|e>fe d3 d2::z|d>cd e3 A3|e>fg f<af d3|\

f>ef g3 A3|

f<af e3 e2 A|f<af d3 d>cd|e>dG B3 A3|B<GB A3 f3|e>fe d3 d2:|]

 


BATTLE OF TOMAI, THE. Scottish, Pipe Tune. The title commemorates a battle during one of the British colonial wars in Africa in the 19th century.

 

BATTLE OF TRAFALGAR, THE.  English, Jig. D Major. Standard tuning. AABB. The naval battle of Trafalgar was fought in 1805 off Trafalgar Cape, Spain, by the allied French and Spanish forces against the victorious English under Lord Nelson. Nelson was killed in the fight, but was enshrined as one of England’s greatest heroes. It was the last great engagement of fleets of sailing ships, and established the dominance of the English Navy for 100 years. Gibbons originally set the tune in the key of ‘G’ major in his ms. The tune also appears in the music manuscript copybook of fiddler John Burks, dated 1821, set for first and second violin in the key of D. Source for notated version: the 1823-26 music mss of papermaker and musician Joshua Gibbons (1778-1871, of Tealby, near Market Rasen, Lincolnshire Wolds) [Sumner]. Sumner (Lincolnshire Collections, vol. 1: The Joshua Gibbons Manuscript), 1997; pg. 66.

 

BATTLE OF WATERLOO, THE. AKA and see “Bonaparte Crossing the Alps,” “Bonaparte Crossing the Rockies,” “Bonaparte’s March [3]." Scottish, March (4/4 time). A Minor. Standard tuning. AABB. A variant of the (probably) Irish march tune usually known as “Bonaparte Crossing the Alps” (though there is much confusion among the several ‘Bonaparte’ titles).  Martin (Ceol na Fidhle), vol. 2, 1988; pg. 43. Flying Fish FF 299, Battlefield Band ‑ "There's a Buzz" (1982).

 

BAULK, THE. AKA - "The Balk." English, American; Country Dance Tune (4/4 time). USA, New England. G Minor. Standard tuning. AABB. The melody appears in Johnson's Wright's Collection (London, c. 1742), volume I, 49, and in Thompson's 200 Country Dances, volume II (London, 1765). Seattle (William Vickers), 1987, Part 2; No. 291. Thompson (Compleat Collection of 200 Favourite Country Dances, vol. 2), 1765; No. 180.

